assets/img/about/plus.svg

<svg width="41" height="36" viewBox="0 0 41 36" fill="none" xmlns="http://www.w3.org/2000/svg">
<circle cx="17.5" cy="18.5" r="17.5" fill="#07ccec"/>
<path fill-rule="evenodd" clip-rule="evenodd" d="M19.5 11H15.5V16.5H10V20.5H15.5V26H19.5V20.5H25V16.5H19.5V11Z" fill="white"/>
<path fill-rule="evenodd" clip-rule="evenodd" d="M35.5 0H31.5V5.5H26V9.5H31.5V15H35.5V9.5H41V5.5H35.5V0Z" fill="white"/>
<path fill-rule="evenodd" clip-rule="evenodd" d="M36.4333 10H34.5667V7.43333H32V5.56667H34.5667V3H36.4333V5.56667H39V7.43333H36.4333V10Z" fill="#07ccec"/>
</svg>

<svg xmlns="http://www.w3.org/2000/svg" width="41" height="36" fill="none"><circle cx="17.5" cy="18.5" r="17.5" fill="#07ccec"/><path fill="#fff" fill-rule="evenodd" d="M19.5 11h-4v5.5H10v4h5.5V26h4v-5.5H25v-4h-5.5zM35.5 0h-4v5.5H26v4h5.5V15h4V9.5H41v-4h-5.5z" clip-rule="evenodd"/><path fill="#07ccec" fill-rule="evenodd" d="M36.433 10h-1.866V7.433H32V5.567h2.567V3h1.866v2.567H39v1.866h-2.567z" clip-rule="evenodd"/></svg>
